packages/ffe-icons/icons/open/400/sm/arrows_more_down.svg

<svg xmlns="http://www.w3.org/2000/svg" height="20" viewBox="0 -960 960 960" width="20"><path d="M252-144q-15.3 0-25.65-10.35Q216-164.7 216-180v-336q0-15.3 10.289-25.65 10.29-10.35 25.5-10.35Q267-552 277.5-541.65 288-531.3 288-516v300h300q15.3 0 25.65 10.289 10.35 10.29 10.35 25.5Q624-165 613.65-154.5 603.3-144 588-144H252Zm192-192q-15.3 0-25.65-10.35Q408-356.7 408-372v-336q0-15.3 10.289-25.65 10.29-10.35 25.5-10.35Q459-744 469.5-733.65 480-723.3 480-708v300h300q15.3 0 25.65 10.289 10.35 10.29 10.35 25.5Q816-357 805.65-346.5 795.3-336 780-336H444Z"/></svg>

<svg xmlns="http://www.w3.org/2000/svg" height="20" viewBox="0 -960 960 960" width="20"><path d="M252-144q-15.3 0-25.65-10.35Q216-164.7 216-180v-336q0-15.3 10.29-25.65Q236.58-552 251.79-552t25.71 10.35Q288-531.3 288-516v300h300q15.3 0 25.65 10.29Q624-195.42 624-180.21t-10.35 25.71Q603.3-144 588-144H252Zm192-192q-15.3 0-25.65-10.35Q408-356.7 408-372v-336q0-15.3 10.29-25.65Q428.58-744 443.79-744t25.71 10.35Q480-723.3 480-708v300h300q15.3 0 25.65 10.29Q816-387.42 816-372.21t-10.35 25.71Q795.3-336 780-336H444Z"/></svg>
